X:1
T:The Miller Of Drone
R:strathspey
M:4/4
L:1/8
K:A
c>B|:A<FF<A E>FE<C|A,2d>c B<BB<G|A<FF<A E>FE<C|E2 (3EFG A>Bc<B|
|A<FF<A E>FE<C|A,2d>c B>ec<d|e<Bc<G A>EF<C|1 E2 (3EFG A>Bc<B:|2 E2 (3EFG A>Bc<d|]
|e<ce>f e<ce>f|e<ca>g f>ff<a|e<ce>f e>fe>c|(3dcB (3cBA F>AE>a|
|e<ce>f e<Ac>f|e<Aa>g f>ff<g|(3agf (3efg (3agf (3efg|(3agf (3edc (3def (3edB|